Numix-GalliumOS/32/categories/applications-sports.svg

<?xml version="1.0" encoding="UTF-8" standalone="no"?>
<svg
   xmlns:dc="http://purl.org/dc/elements/1.1/"
   xmlns:cc="http://creativecommons.org/ns#"
   xmlns:rdf="http://www.w3.org/1999/02/22-rdf-syntax-ns#"
   xmlns:svg="http://www.w3.org/2000/svg"
   xmlns="http://www.w3.org/2000/svg"
   xmlns:sodipodi="http://sodipodi.sourceforge.net/DTD/sodipodi-0.dtd"
   xmlns:inkscape="http://www.inkscape.org/namespaces/inkscape"
   width="32"
   height="32"
   viewBox="0 0 32 32"
   id="svg2"
   version="1.1"
   inkscape:version="0.91 r"
   sodipodi:docname="applications-sports.svg">
  <metadata
     id="metadata10">
    <rdf:RDF>
      <cc:Work
         rdf:about="">
        <dc:format>image/svg+xml</dc:format>
        <dc:type
           rdf:resource="http://purl.org/dc/dcmitype/StillImage" />
      </cc:Work>
    </rdf:RDF>
  </metadata>
  <defs
     id="defs8" />
  <sodipodi:namedview
     pagecolor="#ffffff"
     bordercolor="#666666"
     borderopacity="1"
     objecttolerance="10"
     gridtolerance="10"
     guidetolerance="10"
     inkscape:pageopacity="0"
     inkscape:pageshadow="2"
     inkscape:window-width="961"
     inkscape:window-height="480"
     id="namedview6"
     showgrid="false"
     inkscape:zoom="7.375"
     inkscape:cx="16"
     inkscape:cy="16"
     inkscape:window-x="10"
     inkscape:window-y="34"
     inkscape:window-maximized="0"
     inkscape:current-layer="svg2" />
  <path
     style="fill:#9c9c37;stroke:#9c9c37;stroke-width:0.12372977"
     d="M 15.016691,28.324124 C 9.805855,27.968662 5.2278192,23.863274 3.9348756,18.886809 2.7434925,13.734566 5.1106339,7.9299915 9.7277315,5.2347317 12.696424,3.4652352 16.42682,3.2425833 19.711912,4.1644402 c 4.058515,1.2460693 7.152205,4.8592799 8.238121,8.8865448 0.976543,3.714771 0.273432,7.929533 -2.320267,10.855257 -2.347611,2.921817 -6.097538,4.605378 -9.847465,4.453038 -0.253901,-0.0039 -0.511709,-0.01563 -0.76561,-0.03516 z m 3.105408,-0.58202 c 0.937482,-0.08203 0.769517,-0.36718 -0.07812,-0.441398 -1.519502,-0.292962 -3.160095,-0.300775 -4.628816,0.21484 1.292943,0.621082 3.007754,0.457022 4.453038,0.273432 z M 13.51672,26.917901 c 0.667956,-0.679674 -0.02734,-2.304642 -0.609363,-2.949161 -1.304662,-0.667955 -2.316361,-1.749965 -3.5116502,-2.570262 -0.89842,-0.328118 -1.773403,0.292963 -2.6366674,0.503897 -0.00391,0.855452 -0.062499,1.824183 0.6913928,2.421827 1.2421633,1.222633 2.7460398,2.300737 4.4374138,2.789008 0.542958,0.02344 1.113259,-0.0078 1.628874,-0.195309 z m 7.148299,0.03516 c 2.16402,-0.929669 4.191324,-2.425734 5.410051,-4.464756 0.441397,-0.585926 0.761703,-1.61325 -0.382806,-1.273413 -1.441378,0.906232 -2.742134,2.023398 -4.218667,2.882756 -0.894514,0.707018 -1.539033,1.679655 -2.175739,2.61323 0.218745,0.511709 0.941388,0.390618 1.367161,0.242183 z m 1.464815,-3.742114 c 1.089822,-0.890608 2.660104,-1.464815 3.234312,-2.816351 0.257807,-1.06248 0.277338,-2.164021 0.382805,-3.246031 -1.08201,-0.960918 -2.410109,-1.613249 -3.714772,-2.226519 -1.285131,0.09765 -2.324173,1.242164 -3.339778,1.98043 -0.542958,0.29687 -0.402336,0.968732 -0.550771,1.484346 -0.195308,1.203102 -0.425773,2.402297 -0.558583,3.617117 1.011699,0.746079 2.14449,1.42966 3.374935,1.722623 0.445303,0 0.812484,-0.29687 1.171852,-0.515615 z m -7.753755,0.18359 c 0.984355,-0.371087 2.285111,-0.656237 2.749946,-1.695279 0.343743,-1.460909 0.53124,-2.953068 0.71483,-4.44132 -0.98045,-0.929669 -2.023398,-1.910119 -3.308529,-2.394484 -1.105448,-0.01953 -2.042929,0.761704 -3.027285,1.191383 -1.324193,0.359368 -1.7851218,1.562469 -1.8398082,2.804632 -0.3906174,1.230445 0.054686,2.492139 1.1718522,3.171813 0.976543,0.71483 2.230425,1.859339 3.538994,1.363255 z m -8.2420275,-1.71872 c -0.8007656,-1.476534 -1.34763,-3.089784 -1.5702819,-4.753814 -0.7929533,0.160153 -0.070311,2.097616 0.1445284,2.882756 0.3710866,1.070292 0.941388,2.050742 1.5351264,3.007754 C 6.3488911,22.41799 6.4152961,22.031278 6.1340515,21.675817 Z M 5.7903082,15.109539 C 6.1379577,14.609549 6.6926344,14.218931 6.9035678,13.652536 7.2707482,11.93382 7.8722989,10.273696 8.7355634,8.7307571 8.7004078,7.738589 7.5871482,7.1331321 7.0324715,8.2307669 5.4582835,10.254165 4.2200263,12.726773 4.1653399,15.332191 c -0.2070272,0.89842 0.5742075,1.542938 1.0234175,0.488271 0.1992149,-0.23437 0.3984298,-0.472647 0.6015508,-0.710923 z M 26.098507,16.34389 c 0.667955,-0.874983 1.593718,-1.914025 1.355442,-3.101502 -0.421867,-2.249956 -1.574188,-4.3866333 -3.351497,-5.8514485 -0.53124,-0.2226518 -1.496065,-1.0429483 -1.863245,-0.2695259 -0.542959,1.0429483 -1.898401,2.0312102 -1.410129,3.3280604 0.417961,1.285131 0.722642,2.621042 1.332005,3.82805 1.121072,0.874983 2.417922,1.554657 3.722584,2.128864 z M 11.188641,15.76187 c 1.035136,-0.527334 2.039022,-1.101541 3.050721,-1.667936 0.335931,-1.187477 0.765611,-2.347611 1.16404,-3.51165 C 15.458089,9.3166832 14.329204,8.4143571 13.575313,7.5276557 12.83314,6.344085 11.583164,7.2503173 10.665213,7.6839026 8.6535337,8.7581003 8.1926052,11.117429 7.5051186,13.090047 c 0.097654,0.738267 0.7773286,1.355442 1.2695065,1.906213 0.6796743,0.687486 1.4491909,1.597625 2.4140159,0.76561 z m 7.42173,-6.3787819 C 19.145517,9.3088708 19.747068,9.3635573 20.239246,9.2112165 20.985325,8.4143571 21.641562,7.4807816 21.95015,6.4261147 21.575157,5.3714478 20.3369,4.8870823 19.340826,4.5277144 18.075225,4.1527217 16.719783,3.9652253 15.403402,4.1175661 c -0.9492,0.4804593 -2.648386,1.8827757 -1.691373,2.9725981 0.703111,0.8398273 1.453097,1.6327805 2.218707,2.4179215 0.894514,0.00781 1.785121,-0.062499 2.679635,-0.1249976 z"
     id="path4"
     inkscape:connector-curvature="0" />
</svg>

<svg xmlns="http://www.w3.org/2000/svg" viewBox="0 0 32 32">
 <path d="m 15.02 28.324 c -5.211 -0.355 -9.789 -4.461 -11.08 -9.437 -1.191 -5.152 1.176 -10.957 5.793 -13.652 2.969 -1.769 6.699 -1.992 9.984 -1.07 c 4.059 1.246 7.152 4.859 8.238 8.887 0.977 3.715 0.273 7.93 -2.32 10.855 -2.348 2.922 -6.098 4.605 -9.847 4.453 -0.254 -0.004 -0.512 -0.016 -0.766 -0.035 z m 3.105 -0.582 c 0.937 -0.082 0.77 -0.367 -0.078 -0.441 -1.52 -0.293 -3.16 -0.301 -4.629 0.215 1.293 0.621 3.01 0.457 4.453 0.273 z m -4.605 -0.824 c 0.668 -0.68 -0.027 -2.305 -0.609 -2.949 -1.305 -0.668 -2.316 -1.75 -3.512 -2.57 -0.898 -0.328 -1.773 0.293 -2.637 0.504 -0.004 0.855 -0.062 1.824 0.691 2.422 1.242 1.223 2.746 2.301 4.437 2.789 0.543 0.023 1.113 -0.008 1.629 -0.195 z m 7.148 0.035 c 2.164 -0.93 4.191 -2.426 5.41 -4.465 0.441 -0.586 0.762 -1.613 -0.383 -1.273 -1.441 0.906 -2.742 2.023 -4.219 2.883 -0.895 0.707 -1.539 1.68 -2.176 2.613 0.219 0.512 0.941 0.391 1.367 0.242 z m 1.465 -3.742 c 1.09 -0.891 2.66 -1.465 3.234 -2.816 0.258 -1.062 0.277 -2.164 0.383 -3.246 -1.082 -0.961 -2.41 -1.613 -3.715 -2.227 -1.285 0.098 -2.324 1.242 -3.34 1.98 -0.543 0.297 -0.402 0.969 -0.551 1.484 -0.195 1.203 -0.426 2.402 -0.559 3.617 1.012 0.746 2.144 1.43 3.375 1.723 0.445 0 0.812 -0.297 1.172 -0.516 z m -7.754 0.184 c 0.984 -0.371 2.285 -0.656 2.75 -1.695 0.344 -1.461 0.531 -2.953 0.715 -4.441 -0.98 -0.93 -2.023 -1.91 -3.309 -2.394 -1.105 -0.02 -2.043 0.762 -3.03 1.191 -1.324 0.359 -1.785 1.562 -1.84 2.805 -0.391 1.23 0.055 2.492 1.172 3.172 0.977 0.715 2.23 1.859 3.539 1.363 z m -8.242 -1.719 c -0.801 -1.477 -1.348 -3.09 -1.57 -4.754 -0.793 0.16 -0.07 2.098 0.145 2.883 0.371 1.07 0.941 2.051 1.535 3.01 c 0.105 -0.395 0.172 -0.781 -0.109 -1.137 m -0.344 -6.566 c 0.348 -0.5 0.902 -0.891 1.113 -1.457 0.367 -1.719 0.969 -3.379 1.832 -4.922 -0.035 -0.992 -1.148 -1.598 -1.703 -0.5 -1.574 2.023 -2.812 4.496 -2.867 7.101 c -0.207 0.898 0.574 1.543 1.023 0.488 0.199 -0.234 0.398 -0.473 0.602 -0.711 z m 20.308 1.234 c 0.668 -0.875 1.594 -1.914 1.355 -3.102 -0.422 -2.25 -1.574 -4.387 -3.351 -5.851 -0.531 -0.223 -1.496 -1.043 -1.863 -0.27 -0.543 1.043 -1.898 2.031 -1.41 3.328 0.418 1.285 0.723 2.621 1.332 3.828 1.121 0.875 2.418 1.555 3.723 2.129 z m -14.91 -0.582 c 1.035 -0.527 2.039 -1.102 3.051 -1.668 0.336 -1.187 0.766 -2.348 1.164 -3.512 c 0.055 -1.266 -1.074 -2.168 -1.828 -3.055 -0.742 -1.184 -1.992 -0.277 -2.91 0.156 -2.01 1.074 -2.473 3.434 -3.16 5.406 c 0.098 0.738 0.777 1.355 1.27 1.906 0.68 0.687 1.449 1.598 2.414 0.766 z m 7.422 -6.379 c 0.535 -0.074 1.137 -0.02 1.629 -0.172 0.746 -0.797 1.402 -1.73 1.711 -2.785 -0.375 -1.055 -1.613 -1.539 -2.609 -1.898 -1.266 -0.375 -2.621 -0.562 -3.937 -0.41 c -0.949 0.48 -2.648 1.883 -1.691 2.973 0.703 0.84 1.453 1.633 2.219 2.418 0.895 0.008 1.785 -0.062 2.68 -0.125 z" style="fill:#9c9c37;stroke:#9c9c37;stroke-width:0.124"/>
</svg>
